; generated by Slic3r 1.2.9 on 2019-11-17 at 12:54:26

; external perimeters extrusion width = 0.65mm
; perimeters extrusion width = 0.65mm
; infill extrusion width = 0.65mm
; solid infill extrusion width = 0.65mm
; top infill extrusion width = 0.65mm

M107
M190 S65 ; set bed temperature
M104 S215 ; set temperature
G28;
;
;
;
;
;
;
 
M109 S215 ; wait for temperature to be reached
G21 ; set units to millimeters
G90 ; use absolute coordinates
M82 ; use absolute distances for extrusion
G92 E0
M83;
G1 E-4.0 F1800;
;
;
;
;
;
;
 
G1 Z0.350 F7800.000
M82;
;
;
;
;
;
;
;
 
G1 E-1.00000 F1800.00000
G92 E0
G1 X128.900 Y128.900 F7800.000
G1 E1.00000 F1800.00000
M204 S130
G1 X151.100 Y128.900 E1.76112 F1200.000
G1 X151.100 Y151.100 E2.52224
G1 X128.900 Y151.100 E3.28336
G1 X128.900 Y128.975 E4.04191
G1 X128.275 Y128.275 F7800.000
G1 X151.725 Y128.275 E4.84588 F1200.000
G1 X151.725 Y151.725 E5.64984
G1 X128.275 Y151.725 E6.45381
G1 X128.275 Y128.350 E7.25521
G1 X127.650 Y127.650 F7800.000
G1 X152.350 Y127.650 E8.10202 F1200.000
G1 X152.350 Y152.350 E8.94884
G1 X127.650 Y152.350 E9.79565
G1 X127.650 Y127.725 E10.63990
G1 X128.083 Y127.900 F7800.000
G1 X129.583 Y150.722 F7800.000
G1 X129.278 Y150.417 E10.65495 F1200.000
G1 X129.278 Y149.517 E10.68634
G1 X130.483 Y150.722 E10.74579
G1 X131.382 Y150.722 E10.77718
G1 X129.278 Y148.618 E10.88101
G1 X129.278 Y147.718 E10.91240
G1 X132.282 Y150.722 E11.06063
G1 X133.181 Y150.722 E11.09202
G1 X129.278 Y146.819 E11.28464
G1 X129.278 Y145.919 E11.31602
G1 X134.081 Y150.722 E11.55303
G1 X134.980 Y150.722 E11.58442
G1 X129.278 Y145.020 E11.86582
G1 X129.278 Y144.120 E11.89721
G1 X135.880 Y150.722 E12.22300
G1 X136.779 Y150.722 E12.25439
G1 X129.278 Y143.221 E12.62456
G1 X129.278 Y142.321 E12.65595
G1 X137.679 Y150.722 E13.07052
G1 X138.578 Y150.722 E13.10191
G1 X129.278 Y141.422 E13.56087
G1 X129.278 Y140.522 E13.59226
G1 X139.478 Y150.722 E14.09561
G1 X140.377 Y150.722 E14.12700
G1 X129.278 Y139.623 E14.67474
G1 X129.278 Y138.723 E14.70613
G1 X141.277 Y150.722 E15.29826
G1 X142.176 Y150.722 E15.32964
G1 X129.278 Y137.824 E15.96617
G1 X129.278 Y136.924 E15.99755
G1 X143.076 Y150.722 E16.67846
G1 X143.975 Y150.722 E16.70985
G1 X129.278 Y136.025 E17.43515
G1 X129.278 Y135.125 E17.46654
G1 X144.875 Y150.722 E18.23623
G1 X145.774 Y150.722 E18.26762
G1 X129.278 Y134.226 E19.08171
G1 X129.278 Y133.326 E19.11309
G1 X146.674 Y150.722 E19.97157
G1 X147.573 Y150.722 E20.00295
G1 X129.278 Y132.427 E20.90582
G1 X129.278 Y131.527 E20.93721
G1 X148.473 Y150.722 E21.88446
G1 X149.372 Y150.722 E21.91585
G1 X129.278 Y130.628 E22.90749
G1 X129.278 Y129.728 E22.93888
G1 X150.272 Y150.722 E23.97491
G1 X150.722 Y150.272 E23.99711
G1 X129.728 Y129.278 E25.03314
G1 X130.628 Y129.278 E25.06453
G1 X150.722 Y149.372 E26.05617
G1 X150.722 Y148.473 E26.08756
G1 X131.527 Y129.278 E27.03482
G1 X132.427 Y129.278 E27.06621
G1 X150.722 Y147.573 E27.96907
G1 X150.722 Y146.674 E28.00046
G1 X133.326 Y129.278 E28.85893
G1 X134.226 Y129.278 E28.89032
G1 X150.722 Y145.774 E29.70440
G1 X150.722 Y144.875 E29.73579
G1 X135.125 Y129.278 E30.50548
G1 X136.025 Y129.278 E30.53687
G1 X150.722 Y143.975 E31.26218
G1 X150.722 Y143.076 E31.29356
G1 X136.924 Y129.278 E31.97448
G1 X137.824 Y129.278 E32.00587
G1 X150.722 Y142.176 E32.64239
G1 X150.722 Y141.277 E32.67378
G1 X138.723 Y129.278 E33.26591
G1 X139.623 Y129.278 E33.29730
G1 X150.722 Y140.377 E33.84504
G1 X150.722 Y139.478 E33.87643
G1 X140.522 Y129.278 E34.37978
G1 X141.422 Y129.278 E34.41117
G1 X150.722 Y138.578 E34.87013
G1 X150.722 Y137.679 E34.90151
G1 X142.321 Y129.278 E35.31609
G1 X143.221 Y129.278 E35.34747
G1 X150.722 Y136.779 E35.71765
G1 X150.722 Y135.880 E35.74904
G1 X144.120 Y129.278 E36.07483
G1 X145.020 Y129.278 E36.10622
G1 X150.722 Y134.980 E36.38762
G1 X150.722 Y134.081 E36.41901
G1 X145.919 Y129.278 E36.65602
G1 X146.819 Y129.278 E36.68741
G1 X150.722 Y133.181 E36.88003
G1 X150.722 Y132.282 E36.91141
G1 X147.718 Y129.278 E37.05964
G1 X148.618 Y129.278 E37.09103
G1 X150.722 Y131.382 E37.19487
G1 X150.722 Y130.483 E37.22626
G1 X149.517 Y129.278 E37.28571
G1 X150.417 Y129.278 E37.31710
G1 X150.722 Y129.583 E37.33215
M106 S255
M104 S190 ; set temperature
M83;
G1 E-4.0 F1800;
;
;
;
;
;
;
 
G1 Z0.650 F7800.000
M82;
;
;
;
;
;
;
;
 
G1 X128.796 Y128.796 F7800.000
G1 X151.204 Y128.796 E37.94925 F1288.046
G1 X151.204 Y151.204 E38.56634
G1 X128.796 Y151.204 E39.18343
G1 X128.796 Y128.871 E39.79846
G1 X128.211 Y128.211 F7800.000
G1 X151.789 Y128.211 E40.44781 F1288.046
G1 X151.789 Y151.789 E41.09716
G1 X128.211 Y151.789 E41.74651
G1 X128.211 Y128.286 E42.39379
G1 X127.625 Y127.625 F7800.000
G1 X152.375 Y127.625 E43.07540 F3005.441
G1 X152.375 Y152.375 E43.75700
G1 X127.625 Y152.375 E44.43861
G1 X127.625 Y127.700 E45.11814
G1 X128.058 Y127.875 F7800.000
G1 X129.150 Y129.438 F7800.000
G1 X129.438 Y129.150 E45.12953 F2576.093
G1 X130.278 Y129.150 E45.15298
G1 X129.150 Y130.278 E45.19753
G1 X129.150 Y131.118 E45.22097
G1 X131.118 Y129.150 E45.29867
G1 X131.957 Y129.150 E45.32212
G1 X129.150 Y131.957 E45.43298
G1 X129.150 Y132.797 E45.45643
G1 X132.797 Y129.150 E45.60044
G1 X133.637 Y129.150 E45.62389
G1 X129.150 Y133.637 E45.80106
G1 X129.150 Y134.476 E45.82451
G1 X134.476 Y129.150 E46.03484
G1 X135.316 Y129.150 E46.05829
G1 X129.150 Y135.316 E46.30178
G1 X129.150 Y136.156 E46.32522
G1 X136.156 Y129.150 E46.60187
G1 X136.995 Y129.150 E46.62531
G1 X129.150 Y136.995 E46.93512
G1 X129.150 Y137.835 E46.95856
G1 X137.835 Y129.150 E47.30152
G1 X138.675 Y129.150 E47.32497
G1 X129.150 Y138.675 E47.70109
G1 X129.150 Y139.514 E47.72453
G1 X139.514 Y129.150 E48.13381
G1 X140.354 Y129.150 E48.15725
G1 X129.150 Y140.354 E48.59968
G1 X129.150 Y141.194 E48.62313
G1 X141.194 Y129.150 E49.09872
G1 X142.033 Y129.150 E49.12216
G1 X129.150 Y142.033 E49.63091
G1 X129.150 Y142.873 E49.65436
G1 X142.873 Y129.150 E50.19626
G1 X143.713 Y129.150 E50.21971
G1 X129.150 Y143.713 E50.79477
G1 X129.150 Y144.553 E50.81821
G1 X144.553 Y129.150 E51.42643
G1 X145.392 Y129.150 E51.44987
G1 X129.150 Y145.392 E52.09125
G1 X129.150 Y146.232 E52.11469
G1 X146.232 Y129.150 E52.78923
G1 X147.072 Y129.150 E52.81267
G1 X129.150 Y147.072 E53.52036
G1 X129.150 Y147.911 E53.54381
G1 X147.911 Y129.150 E54.28465
G1 X148.751 Y129.150 E54.30810
G1 X129.150 Y148.751 E55.08210
G1 X129.150 Y149.591 E55.10555
G1 X149.591 Y129.150 E55.91271
G1 X150.430 Y129.150 E55.93615
G1 X129.150 Y150.430 E56.77647
G1 X129.570 Y150.850 E56.79305
G1 X150.850 Y129.570 E57.63337
G1 X150.850 Y130.409 E57.65681
G1 X130.409 Y150.850 E58.46398
G1 X131.249 Y150.850 E58.48742
G1 X150.850 Y131.249 E59.26143
G1 X150.850 Y132.089 E59.28487
G1 X132.089 Y150.850 E60.02572
G1 X132.928 Y150.850 E60.04916
G1 X150.850 Y132.928 E60.75685
G1 X150.850 Y133.768 E60.78030
G1 X133.768 Y150.850 E61.45483
G1 X134.608 Y150.850 E61.47828
G1 X150.850 Y134.608 E62.11966
G1 X150.850 Y135.447 E62.14310
G1 X135.447 Y150.850 E62.75132
G1 X136.287 Y150.850 E62.77477
G1 X150.850 Y136.287 E63.34983
G1 X150.850 Y137.127 E63.37327
G1 X137.127 Y150.850 E63.91518
G1 X137.966 Y150.850 E63.93862
G1 X150.850 Y137.966 E64.44737
G1 X150.850 Y138.806 E64.47082
G1 X138.806 Y150.850 E64.94641
G1 X139.646 Y150.850 E64.96985
G1 X150.850 Y139.646 E65.41229
G1 X150.850 Y140.486 E65.43573
G1 X140.486 Y150.850 E65.84501
G1 X141.325 Y150.850 E65.86845
G1 X150.850 Y141.325 E66.24457
G1 X150.850 Y142.165 E66.26802
G1 X142.165 Y150.850 E66.61098
G1 X143.005 Y150.850 E66.63443
G1 X150.850 Y143.005 E66.94423
G1 X150.850 Y143.844 E66.96768
G1 X143.844 Y150.850 E67.24432
G1 X144.684 Y150.850 E67.26777
G1 X150.850 Y144.684 E67.51126
G1 X150.850 Y145.524 E67.53470
G1 X145.524 Y150.850 E67.74504
G1 X146.363 Y150.850 E67.76848
G1 X150.850 Y146.363 E67.94566
G1 X150.850 Y147.203 E67.96911
G1 X147.203 Y150.850 E68.11312
G1 X148.043 Y150.850 E68.13657
G1 X150.850 Y148.043 E68.24743
G1 X150.850 Y148.882 E68.27088
G1 X148.882 Y150.850 E68.34858
G1 X149.722 Y150.850 E68.37203
G1 X150.850 Y149.722 E68.41658
G1 X150.850 Y150.562 E68.44002
G1 X150.562 Y150.850 E68.45141
M83;
G1 E-4.0 F1800;
;
;
;
;
;
;
 
G1 Z0.950 F7800.000
M82;
;
;
;
;
;
;
;
 
G1 X128.796 Y128.796 F7800.000
G1 X151.204 Y128.796 E69.06851 F1288.046
G1 X151.204 Y151.204 E69.68560
G1 X128.796 Y151.204 E70.30269
G1 X128.796 Y128.871 E70.91772
G1 X128.211 Y128.211 F7800.000
G1 X151.789 Y128.211 E71.56707 F1288.046
G1 X151.789 Y151.789 E72.21642
G1 X128.211 Y151.789 E72.86577
G1 X128.211 Y128.286 E73.51305
G1 X127.625 Y127.625 F7800.000
G1 X152.375 Y127.625 E74.19466 F3005.441
G1 X152.375 Y152.375 E74.87626
G1 X127.625 Y152.375 E75.55786
G1 X127.625 Y127.700 E76.23740
G1 X128.058 Y127.875 F7800.000
G1 X129.438 Y150.850 F7800.000
G1 X129.150 Y150.562 E76.24879 F2576.092
G1 X129.150 Y149.722 E76.27224
G1 X130.278 Y150.850 E76.31678
G1 X131.118 Y150.850 E76.34023
G1 X129.150 Y148.882 E76.41793
G1 X129.150 Y148.043 E76.44138
G1 X131.957 Y150.850 E76.55224
G1 X132.797 Y150.850 E76.57568
G1 X129.150 Y147.203 E76.71970
G1 X129.150 Y146.363 E76.74315
G1 X133.637 Y150.850 E76.92032
G1 X134.476 Y150.850 E76.94377
G1 X129.150 Y145.524 E77.15410
G1 X129.150 Y144.684 E77.17755
G1 X135.316 Y150.850 E77.42104
G1 X136.156 Y150.850 E77.44448
G1 X129.150 Y143.844 E77.72113
G1 X129.150 Y143.005 E77.74457
G1 X136.995 Y150.850 E78.05438
G1 X137.835 Y150.850 E78.07782
G1 X129.150 Y142.165 E78.42078
G1 X129.150 Y141.325 E78.44423
G1 X138.675 Y150.850 E78.82035
G1 X139.514 Y150.850 E78.84379
G1 X129.150 Y140.486 E79.25307
G1 X129.150 Y139.646 E79.27651
G1 X140.354 Y150.850 E79.71894
G1 X141.194 Y150.850 E79.74239
G1 X129.150 Y138.806 E80.21798
G1 X129.150 Y137.966 E80.24142
G1 X142.033 Y150.850 E80.75017
G1 X142.873 Y150.850 E80.77362
G1 X129.150 Y137.127 E81.31552
G1 X129.150 Y136.287 E81.33896
G1 X143.713 Y150.850 E81.91402
G1 X144.553 Y150.850 E81.93747
G1 X129.150 Y135.447 E82.54569
G1 X129.150 Y134.608 E82.56913
G1 X145.392 Y150.850 E83.21051
G1 X146.232 Y150.850 E83.23395
G1 X129.150 Y133.768 E83.90849
G1 X129.150 Y132.928 E83.93193
G1 X147.072 Y150.850 E84.63962
G1 X147.911 Y150.850 E84.66307
G1 X129.150 Y132.089 E85.40391
G1 X129.150 Y131.249 E85.42736
G1 X148.751 Y150.850 E86.20136
G1 X149.591 Y150.850 E86.22481
G1 X129.150 Y130.409 E87.03197
G1 X129.150 Y129.570 E87.05541
G1 X150.430 Y150.850 E87.89573
G1 X150.850 Y150.430 E87.91231
G1 X129.570 Y129.150 E88.75263
G1 X130.409 Y129.150 E88.77607
G1 X150.850 Y149.591 E89.58323
G1 X150.850 Y148.751 E89.60668
G1 X131.249 Y129.150 E90.38068
G1 X132.089 Y129.150 E90.40413
G1 X150.850 Y147.911 E91.14498
G1 X150.850 Y147.072 E91.16842
G1 X132.928 Y129.150 E91.87611
G1 X133.768 Y129.150 E91.89956
G1 X150.850 Y146.232 E92.57409
G1 X150.850 Y145.392 E92.59754
G1 X134.608 Y129.150 E93.23891
G1 X135.447 Y129.150 E93.26236
G1 X150.850 Y144.553 E93.87058
G1 X150.850 Y143.713 E93.89402
G1 X136.287 Y129.150 E94.46909
G1 X137.127 Y129.150 E94.49253
G1 X150.850 Y142.873 E95.03444
G1 X150.850 Y142.034 E95.05788
G1 X137.966 Y129.150 E95.56663
G1 X138.806 Y129.150 E95.59007
G1 X150.850 Y141.194 E96.06567
G1 X150.850 Y140.354 E96.08911
G1 X139.646 Y129.150 E96.53154
G1 X140.486 Y129.150 E96.55499
G1 X150.850 Y139.514 E96.96427
G1 X150.850 Y138.675 E96.98771
G1 X141.325 Y129.150 E97.36383
G1 X142.165 Y129.150 E97.38728
G1 X150.850 Y137.835 E97.73024
G1 X150.850 Y136.995 E97.75368
G1 X143.005 Y129.150 E98.06349
G1 X143.844 Y129.150 E98.08693
G1 X150.850 Y136.156 E98.36358
G1 X150.850 Y135.316 E98.38703
G1 X144.684 Y129.150 E98.63052
G1 X145.524 Y129.150 E98.65396
G1 X150.850 Y134.476 E98.86430
G1 X150.850 Y133.637 E98.88774
G1 X146.363 Y129.150 E99.06492
G1 X147.203 Y129.150 E99.08836
G1 X150.850 Y132.797 E99.23238
G1 X150.850 Y131.957 E99.25583
G1 X148.043 Y129.150 E99.36669
G1 X148.882 Y129.150 E99.39014
G1 X150.850 Y131.118 E99.46784
G1 X150.850 Y130.278 E99.49129
G1 X149.722 Y129.150 E99.53583
G1 X150.562 Y129.150 E99.55928
G1 X150.850 Y129.438 E99.57067
M83;
G1 E-4.0 F1800;
;
;
;
;
;
;
 
G1 Z1.250 F7800.000
M82;
;
;
;
;
;
;
;
 
G1 X128.796 Y128.796 F7800.000
G1 X151.204 Y128.796 E100.18776 F609.996
G1 X151.204 Y151.204 E100.80486
G1 X128.796 Y151.204 E101.42195
G1 X128.796 Y128.871 E102.03698
G1 X128.211 Y128.211 F7800.000
G1 X151.789 Y128.211 E102.68633 F609.996
G1 X151.789 Y151.789 E103.33568
G1 X128.211 Y151.789 E103.98503
G1 X128.211 Y128.286 E104.63231
G1 X127.625 Y127.625 F7800.000
G1 X152.375 Y127.625 E105.31391 F1423.323
G1 X152.375 Y152.375 E105.99552
G1 X127.625 Y152.375 E106.67712
G1 X127.625 Y127.700 E107.35666
G1 X128.058 Y127.875 F7800.000
G1 X129.150 Y131.559 F7800.000
G1 X131.559 Y129.150 E107.45047 F1219.991
G1 X137.080 Y129.150 E107.60253
G1 X129.150 Y137.080 E107.91138
G1 X129.150 Y142.601 E108.06343
G1 X142.601 Y129.150 E108.58732
G1 X148.122 Y129.150 E108.73937
G1 X129.150 Y148.122 E109.47829
G1 X131.943 Y150.850 E109.58582
G1 X150.850 Y131.943 E110.32219
G1 X150.850 Y137.464 E110.47424
G1 X137.464 Y150.850 E110.99557
G1 X142.986 Y150.850 E111.14763
G1 X150.850 Y142.986 E111.45392
G1 X150.850 Y148.507 E111.60598
G1 X148.507 Y150.850 E111.69724
M83;
G1 E-4.0 F1800;
;
;
;
;
;
;
 
G1 Z1.550 F7800.000
M82;
;
;
;
;
;
;
;
 
G1 X128.796 Y128.796 F7800.000
G1 X151.204 Y128.796 E112.31433 F609.996
G1 X151.204 Y151.204 E112.93143
G1 X128.796 Y151.204 E113.54852
G1 X128.796 Y128.871 E114.16355
G1 X128.211 Y128.211 F7800.000
G1 X151.789 Y128.211 E114.81290 F609.996
G1 X151.789 Y151.789 E115.46225
G1 X128.211 Y151.789 E116.11160
G1 X128.211 Y128.286 E116.75888
G1 X127.625 Y127.625 F7800.000
G1 X152.375 Y127.625 E117.44048 F1423.323
G1 X152.375 Y152.375 E118.12209
G1 X127.625 Y152.375 E118.80369
G1 X127.625 Y127.700 E119.48323
G1 X128.058 Y127.875 F7800.000
G1 X131.559 Y150.850 F7800.000
G1 X129.150 Y148.441 E119.57704 F1219.991
G1 X129.150 Y142.920 E119.72910
G1 X137.080 Y150.850 E120.03795
G1 X142.601 Y150.850 E120.19000
G1 X129.150 Y137.399 E120.71389
G1 X129.150 Y131.878 E120.86594
G1 X148.122 Y150.850 E121.60486
G1 X150.850 Y148.057 E121.71239
G1 X131.943 Y129.150 E122.44876
G1 X137.464 Y129.150 E122.60081
G1 X150.850 Y142.536 E123.12214
G1 X150.850 Y137.014 E123.27420
G1 X142.986 Y129.150 E123.58050
G1 X148.507 Y129.150 E123.73255
G1 X150.850 Y131.493 E123.82381
M83;
G1 E-4.0 F1800;
;
;
;
;
;
;
 
G1 Z1.850 F7800.000
M82;
;
;
;
;
;
;
;
 
G1 X128.796 Y128.796 F7800.000
G1 X151.204 Y128.796 E124.44090 F609.996
G1 X151.204 Y151.204 E125.05800
G1 X128.796 Y151.204 E125.67509
G1 X128.796 Y128.871 E126.29012
G1 X128.211 Y128.211 F7800.000
G1 X151.789 Y128.211 E126.93947 F609.996
G1 X151.789 Y151.789 E127.58882
G1 X128.211 Y151.789 E128.23817
G1 X128.211 Y128.286 E128.88545
G1 X127.625 Y127.625 F7800.000
G1 X152.375 Y127.625 E129.56706 F1423.323
G1 X152.375 Y152.375 E130.24866
G1 X127.625 Y152.375 E130.93026
G1 X127.625 Y127.700 E131.60980
G1 X128.058 Y127.875 F7800.000
G1 X129.150 Y131.559 F7800.000
G1 X131.559 Y129.150 E131.70362 F1219.991
G1 X137.080 Y129.150 E131.85567
G1 X129.150 Y137.080 E132.16452
G1 X129.150 Y142.601 E132.31657
G1 X142.601 Y129.150 E132.84046
G1 X148.122 Y129.150 E132.99251
G1 X129.150 Y148.122 E133.73143
G1 X131.943 Y150.850 E133.83896
G1 X150.850 Y131.943 E134.57533
G1 X150.850 Y137.464 E134.72738
G1 X137.464 Y150.850 E135.24872
G1 X142.986 Y150.850 E135.40077
G1 X150.850 Y142.986 E135.70707
G1 X150.850 Y148.507 E135.85912
G1 X148.507 Y150.850 E135.95038
M83;
G1 E-4.0 F1800;
;
;
;
;
;
;
 
G1 Z2.150 F7800.000
M82;
;
;
;
;
;
;
;
 
G1 X128.796 Y128.796 F7800.000
G1 X151.204 Y128.796 E136.56748 F609.996
G1 X151.204 Y151.204 E137.18457
G1 X128.796 Y151.204 E137.80166
G1 X128.796 Y128.871 E138.41669
G1 X128.211 Y128.211 F7800.000
G1 X151.789 Y128.211 E139.06604 F609.996
G1 X151.789 Y151.789 E139.71539
G1 X128.211 Y151.789 E140.36474
G1 X128.211 Y128.286 E141.01202
G1 X127.625 Y127.625 F7800.000
G1 X152.375 Y127.625 E141.69363 F1423.323
G1 X152.375 Y152.375 E142.37523
G1 X127.625 Y152.375 E143.05683
G1 X127.625 Y127.700 E143.73637
G1 X128.058 Y127.875 F7800.000
G1 X131.559 Y150.850 F7800.000
G1 X129.150 Y148.441 E143.83019 F1219.991
G1 X129.150 Y142.920 E143.98224
G1 X137.080 Y150.850 E144.29109
